svgs/sharp-duotone-light/circle-chevron-up.svg

<svg xmlns="http://www.w3.org/2000/svg" viewBox="0 0 512 512"><!--! Font Awesome Pro 7.1.0 by @fontawesome - https://fontawesome.com License - https://fontawesome.com/license (Commercial License) Copyright 2025 Fonticons, Inc. --><path opacity=".4" fill="currentColor" d="M32 256a224 224 0 1 0 448 0 224 224 0 1 0 -448 0zm89.4 32l11.3-11.3 112-112 11.3-11.3 11.3 11.3 112 112 11.3 11.3-22.6 22.6-11.3-11.3-100.7-100.7-100.7 100.7-11.3 11.3-22.6-22.6z"/><path fill="currentColor" d="M256 32a224 224 0 1 1 0 448 224 224 0 1 1 0-448zm0 480a256 256 0 1 0 0-512 256 256 0 1 0 0 512zm11.3-347.3l-11.3-11.3-11.3 11.3-112 112-11.3 11.3 22.6 22.6 11.3-11.3 100.7-100.7 100.7 100.7 11.3 11.3 22.6-22.6-11.3-11.3-112-112z"/></svg>

<svg xmlns="http://www.w3.org/2000/svg" viewBox="0 0 512 512"><!--! Font Awesome Pro 6.7.2 by @fontawesome - https://fontawesome.com License - https://fontawesome.com/license (Commercial License) Copyright 2024 Fonticons, Inc. --><defs><style>.fa-secondary{opacity:.4}</style></defs><path class="fa-secondary" d="M32 256a224 224 0 1 0 448 0A224 224 0 1 0 32 256zm89.4 32l11.3-11.3 112-112L256 153.4l11.3 11.3 112 112L390.6 288 368 310.6l-11.3-11.3L256 198.6 155.3 299.3 144 310.6 121.4 288z"/><path class="fa-primary" d="M256 32a224 224 0 1 1 0 448 224 224 0 1 1 0-448zm0 480A256 256 0 1 0 256 0a256 256 0 1 0 0 512zm11.3-347.3L256 153.4l-11.3 11.3-112 112L121.4 288 144 310.6l11.3-11.3L256 198.6 356.7 299.3 368 310.6 390.6 288l-11.3-11.3-112-112z"/></svg>
